X:1
T:Christ est vainqueur de la mort
T:Christ est vainqueur de la mort
T:cantate de paque
T:Bresan du XVIIIe Trans: 
C:Bresan
%%score [ ( 1 2 ) 3 4 ( 5 6 ) ]
L:1/8
Q:1/4=70
M:2/2
K:F
V:1 treble nm="Soprano" snm="S."
V:2 treble 
V:3 treble nm="Alto" snm="A."
V:4 treble-8 nm="Tenor" snm="T."
V:5 bass nm="Bass" snm="B."
V:6 bass 
V:1
 z4 A2 A2 | G2 F2 c2 c2 | A4 c2 F2 | B2 A2 G4 | F4 A2 A2 | G2 F2 c2 c2 | A4 c2 F2 | B2 A2 G4 | %8
w: Christ est|vain queur de la|mort chan tons|Al le lu|ia com me|le prin\- temps sur|nous se leve|un jour nou|
w: ||||||||
S F4[Q:1/4=120] f2 f2 | e2 e2 d2 d2 | c4 c2 d2 | c2 (BA) B2 c2 | A2 AB c2 c2 | c2 z6 | %14
w: veau Le Sei|gneur res su ci|te est sor|ti de- * son tom|beau Il est bien vi|vant|
w: ||||||
[M:3/2] z2 AB c2 z4 (AB) |[M:4/4] c2 c2 d4 | c4 F2 G2 | A2 B2 (A2 G2) |S F8 |[Q:1/4=70] z4 A2 A2 | %20
w: Il est la par- *|mi les Hom|mes chan tons|Al le lu *|ia||
w: |||||Au ma|
 G2 F2 c2 c2 | A4 c2 F2 | B2 A2 G4 | F4 A2 A2 | G2 F2 c2 c2 | A4 c2 F2 | B2 A2 G4 | %27
w: |||||||
w: tin du jour de|Paques il sor|ti du tom|beau la vie|a vain cu la|mort chan tons|Al le lu|
 F4[Q:1/4=120] f2 f2 | e2 e2 d2 d2 | c4 c2 d2 | c2 (BA) B2 c2 | A2 AB c2 c2 | c2 z6 | %33
w: ||||||
w: ia Jour de|joie et d'al le|gresse que le|Sei gneur- * fit pour|nous l'hi ver est fi|ni|
[M:3/2] z2 AB c2 z4 (AB) |[M:4/4] c2 c2 d4 | c4 F2 G2 | A2 B2 (A2 G2) | F8 |] %38
w: |||||
w: et les peines il- *|a dans son|corps les pe|ches du mon- *|de|
V:2
 x8 | x8 | x8 | x8 | x8 | x8 | x8 | x8 | x8 | x8 | x8 | x8 | x8 | x8 |[M:3/2] x12 |[M:4/4] x8 | %16
 x8 | A2 B2 c2 e2 | f8 | x8 | x8 | x8 | x8 | x8 | x8 | x8 | x8 | x8 | x8 | x8 | x8 | x8 | x8 | %33
[M:3/2] x12 |[M:4/4] x8 | x8 | A2 B2 c2 e2 | f8 |] %38
V:3
 z4 F2 F2 | E2 F2 G2 E2 | F4 F2 F2 | (DE) F2 E4 | F4 F2 F2 | E2 F2 G2 E2 | F4 F2 F2 | F2 F2 E4 | %8
w: Christ est|vain queur de la|mort chan tons|Al _ le lu|ia com me|le prin\- temps sur|nous se leve|un jour nou|
w: ||||||||
 C4 A2 A2 | G2 G2 F2 (GF) | E4 z2 DE | F2 D2 G2 E2 | C2 FG A2 A2 | A2 z6 | %14
w: veau Le Sei|gneur res su ci- *|te est sor|ti de son tom|beau Il est bien vi|vant|
w: ||||||
[M:3/2] z2 FG A2 z4 (FG) |[M:4/4] A2 A2 B4 | A4 F2 F2 | F2 F2 (F2 E2) | C8 | z4 F2 F2 | %20
w: Il est la par- *|mi les Hom|mes chan tons|Al le lu *|ia||
w: |||||Au ma|
 E2 F2 G2 E2 | F4 F2 F2 | (DE) F2 E4 | F4 F2 F2 | E2 F2 G2 E2 | F4 F2 F2 | F2 F2 E4 | C4 A2 A2 | %28
w: ||||||||
w: tin du jour de|Paques il sor|ti- * du tom|beau la vie|a vain cu la|mort chan tons|Al le lu|ia Jour de|
 G2 G2 F2 (GF) | E4 z2 DE | F2 D2 G2 E2 | C2 FG A2 A2 | A2 z6 |[M:3/2] z2 FG A2 z4 (FG) | %34
w: ||||||
w: joie et d'al le- *|gresse que le|Sei gneur fit pour|nous l'hi ver est fi|ni|et les peines il- *|
[M:4/4] A2 A2 B4 | A4 F2 F2 | F2 F2 (F2 E2) | C8 |] %38
w: ||||
w: a dans son|corps les pe|ches du mon- *|de|
V:4
 z4 c2 c2 | c2 A2 G2 c2 | c4 c2 c2 | B2 c2 (c2 B2) | A4 c2 c2 | c2 A2 G2 c2 | c4 A2 A2 | %7
w: Christ est|vain queur de la|mort chan tons|Al le lu *|ia com me|le prin\- temps sur|nous se leve|
w: |||||||
 (Bc) d2 (B2 c2) | A4 c2 c2 | c2 (ed) c2 =B2 | c2 (cB) A2 B2 | A2 (GF) E2 C2 | F2 z6 | %13
w: un * jour nou- *|veau Le Sei|gneur res- * su ci|te est- * sor- *|ti de * son tom|beau|
w: ||||||
 z2 AB c2 c2 |[M:3/2] c2 z4 AB c2 (AB) |[M:4/4] c2 c2 (dcde) | f2 g4 f2 | c2 d2 c2 B2 | A8 | %19
w: Il est la la|la Il est la par- *|mi * * * * *|* chan tons|||
w: |* il- * a por- *|te * * * * *|* les pe|||
 z4 c2 c2 | c2 A2 G2 c2 | c4 c2 c2 | B2 c2 (c2 B2) | A4 c2 c2 | c2 A2 G2 c2 | c4 A2 A2 | %26
w: Au ma|tin du jour de|Paques il sor|ti du tom- *|beau la vie|a vain cu la|mort chan tons|
w: |||||||
 (Bc) d2 (B2 c2) | A4 c2 c2 | c2 (ed) c2 =B2 | c2 (cB) A2 B2 | A2 (GF) E2 C2 | F2 z6 | %32
w: Al * le lu- *|ia Jour de|joie et- * d'al le|gresse que- * le Sei|gneur fit- * * pour|nous|
w: ||||||
 z2 AB c2 c2 |[M:3/2] c2 z4 (AB) c2 (AB) |[M:4/4] c2 c2 (dcde) | f2 g4 f2 | c2 d2 c2 B2 | A8 |] %38
w: et les peines aus|si il- * a por- *|te dans * * * *|corps les pe|ches du mon- *|de|
w: ||||||
V:5
 z4 F,2 F,2 | C,2 D,2 E,2 C,2 | F,4 A,2 A,2 | G,2 F,2 C,4 | F,4 F,2 F,2 | C,2 D,2 E,2 C,2 | %6
w: Christ est|vain quer de la|mort chan tons|Al le lu|ia com me|le prin\- temps sur|
w: ||||||
 F,4 D,2 D,2 | C,2 B,,2 C,4 | F,4 (F,G,)(A,F,) | C,2 C,2 G,2 G,2 | C,2 (CB,) (A,2 B,2) | %11
w: nous se leve|un jour nou|veau le * Sei *|gneur res su ci|te est * sor- *|
w: |||||
 A,2 (G,F,) E,2 C,2 | F,2 z6 | z2 F,G, A,2 A,2 |[M:3/2] A,2 z4 F,G, A,2 F,G, |[M:4/4] A,2 A,2 B,4 | %16
w: ti de * son tom|beau|Il est la la|la Il est la par- *|mi les Hom|
w: |||* il- * a por- *|te dans son|
 A,4 D,3 E, | F,2 B,,2 C,4 | F,,8 | z4 F,2 F,2 | C,2 D,2 E,2 C,2 | F,4 A,2 A,2 | G,2 F,2 C,4 | %23
w: mes chan tons|al le lu|ia|Au ma|tin du jour de|Paques il sor|ti du tom|
w: |||||||
 F,4 F,2 F,2 | C,2 D,2 E,2 C,2 | F,4 D,2 D,2 | C,2 B,,2 C,4 | F,4 (F,G,)(A,F,) | C,2 C,2 G,2 G,2 | %29
w: beau la vie|a vain cu la|mort chan tons|Al le lu|ia Jour- * de- *|joie et d'al le|
w: ||||||
 C,2 ((CB,)) (A,2 B,2) | A,2 ((G,F,)) E,2 C,2 | F,2 z6 | z2 F,G, A,2 A,2 | %33
w: gresse que- * le Sei|gneur fit- * * pour|nous|et les peines aus|
w: ||||
[M:3/2] A,2 z4 (F,G,) A,2 (F,G,) |[M:4/4] A,2 A,2 B,4 | A,4 D,3 E, | F,2 B,,2 C,4 | F,,8 |] %38
w: si * * * * *|* * son|* les pe|che du mon|de|
w: * il- * a por- *|te dans son||||
V:6
 x8 | x8 | x8 | x8 | x8 | x8 | x8 | x8 | x8 | x8 | x8 | x8 | x8 | x8 |[M:3/2] x12 | %15
w: |||||||||||||||
w: |||||||||||||||
[M:4/4] A,2 F,2 B,2 B,,2 | (F,G,F,E,) D,C,D,E, | F,2 B,,2 C,4 | F,8 | x8 | x8 | x8 | x8 | x8 | x8 | %25
w: * les Hom mes|chan * * * tons * * *|Al le lu|ia|||||||
w: * * * corps|les * * * pe * * *|che du mon|de|||||||
 x8 | x8 | x8 | x8 | x8 | x8 | x8 | x8 |[M:3/2] x12 |[M:4/4] A,2 F,2 B,2 B,,2 | %35
w: ||||||||||
w: |||||||||* * * corps|
 (F,G,F,E,) D,C,D,E, | F,2 B,,2 C,4 | F,8 |] %38
w: |||
w: les * * * pe * * *|che du mon||

